dist/img/icons/apple-pay.svg

<svg width="39" height="16" viewBox="0 0 39 16" fill="none" xmlns="http://www.w3.org/2000/svg">
<path d="M7.32557 2.05006C7.77487 1.49103 8.0958 0.745647 7.99952 0.000267029C7.32557 0.0313245 6.52325 0.435072 6.04186 0.963049C5.62466 1.42891 5.23954 2.20535 5.33582 2.91967C6.10605 3.01284 6.84418 2.6091 7.32557 2.05006ZM7.99952 3.10602C6.90837 3.0439 5.97768 3.69611 5.46419 3.69611C4.95071 3.69611 4.14839 3.13707 3.28189 3.13707C2.15864 3.16813 1.13167 3.75822 0.554004 4.75206C-0.601335 6.70869 0.233076 9.59703 1.38841 11.181C1.93399 11.9574 2.60794 12.827 3.47444 12.796C4.30885 12.7649 4.62978 12.268 5.62466 12.268C6.61953 12.268 6.90837 12.796 7.80696 12.7649C8.70556 12.7338 9.28323 11.9885 9.82881 11.181C10.4707 10.2803 10.7274 9.41069 10.7274 9.37963C10.6953 9.34857 8.9623 8.72742 8.9623 6.80186C8.93021 5.18687 10.3102 4.41043 10.3744 4.37937C9.63625 3.2613 8.41673 3.13707 7.99952 3.10602Z" fill="#0B002E"/>
<path d="M17.4361 0.899094C19.8109 0.899094 21.4477 2.48303 21.4477 4.75022C21.4477 7.04848 19.7788 8.63241 17.3719 8.63241H14.7724V12.6388H12.8789V0.899094H17.4361ZM14.7724 7.11059H16.9226C18.5593 7.11059 19.49 6.24098 19.49 4.78128C19.49 3.29052 18.5593 2.45197 16.9226 2.45197H14.7403V7.11059H14.7724ZM21.9291 10.2474C21.9291 8.75664 23.1165 7.82491 25.2346 7.70068L27.6737 7.57645V6.92425C27.6737 5.96146 26.9997 5.40243 25.9086 5.40243C24.8495 5.40243 24.2076 5.89935 24.0472 6.64473H22.3142C22.4105 5.09186 23.7904 3.94273 25.9727 3.94273C28.123 3.94273 29.503 5.02974 29.503 6.76896V12.6699H27.7699V11.2723H27.7378C27.2244 12.2351 26.1011 12.8252 24.9458 12.8252C23.1486 12.8252 21.9291 11.7692 21.9291 10.2474ZM27.6737 9.47096V8.7877L25.4914 8.91193C24.4002 8.97404 23.7904 9.4399 23.7904 10.1853C23.7904 10.9307 24.4323 11.4276 25.3951 11.4276C26.6788 11.4276 27.6737 10.589 27.6737 9.47096ZM31.1076 15.8377V14.4091C31.236 14.4402 31.5569 14.4402 31.6853 14.4402C32.5197 14.4402 32.969 14.0985 33.2578 13.2289C33.2578 13.1979 33.4183 12.7009 33.4183 12.7009L30.209 4.12907H32.1666L34.4131 11.117H34.4452L36.6917 4.12907H38.6173L35.3117 13.1668C34.5415 15.2477 33.675 15.8999 31.8457 15.8999C31.7173 15.8688 31.2681 15.8688 31.1076 15.8377Z" fill="#0B002E"/>
</svg>

<svg width="39" height="16" viewBox="0 0 39 16" fill="none" xmlns="http://www.w3.org/2000/svg"><path d="M7.326 2.05C7.775 1.491 8.096.746 8 0c-.674.031-1.477.435-1.958.963-.417.466-.802 1.242-.706 1.957.77.093 1.508-.31 1.99-.87zM8 3.106c-1.092-.062-2.022.59-2.536.59-.513 0-1.316-.559-2.182-.559A3.235 3.235 0 00.554 4.752c-1.155 1.957-.32 4.845.834 6.429.546.776 1.22 1.646 2.086 1.615.835-.031 1.156-.528 2.15-.528.996 0 1.284.528 2.183.497.899-.031 1.476-.777 2.022-1.584.642-.9.898-1.77.898-1.801-.032-.031-1.765-.653-1.765-2.578-.032-1.615 1.348-2.392 1.412-2.423C9.636 3.261 8.417 3.137 8 3.106zM17.436.9c2.375 0 4.012 1.583 4.012 3.85 0 2.298-1.67 3.882-4.076 3.882h-2.6v4.007H12.88V.899h4.557zm-2.664 6.21h2.15c1.637 0 2.568-.869 2.568-2.329 0-1.49-.93-2.329-2.567-2.329H14.74v4.659h.032zm7.157 3.137c0-1.49 1.188-2.422 3.306-2.546l2.439-.125v-.652c0-.963-.674-1.522-1.765-1.522-1.06 0-1.701.497-1.862 1.243h-1.733c.096-1.553 1.476-2.702 3.659-2.702 2.15 0 3.53 1.087 3.53 2.826v5.9H27.77v-1.397h-.032c-.514.963-1.637 1.553-2.792 1.553-1.797 0-3.017-1.056-3.017-2.578zm5.745-.776v-.683l-2.183.124c-1.09.062-1.7.528-1.7 1.273 0 .746.641 1.243 1.604 1.243 1.284 0 2.279-.839 2.279-1.957zm3.434 6.367v-1.429c.128.031.449.031.577.031.835 0 1.284-.341 1.573-1.211 0-.031.16-.528.16-.528L30.21 4.129h1.958l2.246 6.988h.032l2.247-6.988h1.925l-3.305 9.038c-.77 2.08-1.637 2.733-3.466 2.733-.129-.031-.578-.031-.738-.062z" fill="#0B002E"/></svg>
